;FLAVOR:UltiGCode
;TIME:1599
;MATERIAL:1201
;MATERIAL2:0
;NOZZLE_DIAMETER:0.4
;Generated with Cura_SteamEngine 3.3.1
M82 ;absolute extrusion mode

G92 E0
G10
;LAYER_COUNT:149
;LAYER:0
M107
G0 F4320 X99.073 Y99.165 Z0.27
;TYPE:SKIRT
G11
G1 F1800 X99.692 Y98.548 E0.08259
G1 X100.529 Y97.801 E0.18861
G1 X101.225 Y97.247 E0.27267
G1 X102.141 Y96.599 E0.3787
G1 X102.881 Y96.135 E0.46124
G1 X103.862 Y95.593 E0.56716
G1 X104.666 Y95.207 E0.65144
G1 X105.703 Y94.779 E0.75745
G1 X106.75 Y94.43 E0.86175
G1 X108.379 Y94.012 E1.02067
G1 X109.465 Y93.813 E1.12501
G1 X110.579 Y93.689 E1.23093
G1 X111.457 Y93.641 E1.31403
G1 X112.577 Y93.642 E1.41987
G1 X113.68 Y93.721 E1.52437
G1 X115.345 Y93.958 E1.6833
G1 X116.418 Y94.188 E1.787
G1 X117.496 Y94.499 E1.89302
G1 X118.334 Y94.793 E1.97695
G1 X119.369 Y95.223 E2.08286
G1 X120.167 Y95.608 E2.16659
G1 X121.148 Y96.152 E2.27259
G1 X121.503 Y96.375 E2.31221
G1 X121.986 Y96.072 E2.36609
G1 X122.765 Y95.643 E2.45013
G1 X123.776 Y95.158 E2.5561
G1 X124.794 Y94.754 E2.6596
G1 X126.397 Y94.244 E2.81856
G1 X127.165 Y94.041 E2.89363
G1 X127.698 Y93.948 E2.94476
G1 X129.363 Y93.716 E3.10362
G1 X130.457 Y93.641 E3.20725
G1 X131.577 Y93.642 E3.31309
G1 X132.68 Y93.721 E3.41759
G1 X134.345 Y93.958 E3.57652
G1 X135.418 Y94.188 E3.68022
G1 X136.496 Y94.499 E3.78624
G1 X137.334 Y94.793 E3.87017
G1 X138.369 Y95.223 E3.97608
G1 X139.167 Y95.608 E4.05981
G1 X140.148 Y96.152 E4.16581
G1 X140.888 Y96.618 E4.24845
G1 X141.802 Y97.267 E4.35439
G1 X142.501 Y97.825 E4.43891
G1 X143.335 Y98.573 E4.54478
G1 X143.952 Y99.192 E4.62737
G1 X144.699 Y100.029 E4.73338
G1 X145.253 Y100.725 E4.81745
G1 X145.901 Y101.641 E4.92348
G1 X146.365 Y102.381 E5.00602
G1 X146.907 Y103.362 E5.11193
G1 X147.292 Y104.163 E5.19592
G1 X147.72 Y105.199 E5.30184
G1 X148.07 Y106.249 E5.40644
G1 X148.488 Y107.878 E5.56536
G1 X148.687 Y108.964 E5.6697
G1 X148.811 Y110.078 E5.77562
G1 X148.859 Y110.956 E5.85872
G1 X148.858 Y112.077 E5.96465
G1 X148.779 Y113.18 E6.06915
G1 X148.542 Y114.845 E6.22808
G1 X148.312 Y115.918 E6.33178
G1 X148.001 Y116.996 E6.43781
G1 X147.707 Y117.834 E6.52173
G1 X147.277 Y118.869 E6.62765
G1 X146.892 Y119.667 E6.71137
G1 X146.348 Y120.648 E6.81738
G1 X145.882 Y121.388 E6.90002
G1 X145.233 Y122.302 E7.00595
G1 X144.675 Y123.001 E7.09047
G1 X143.927 Y123.835 E7.19634
G1 X143.308 Y124.452 E7.27893
G1 X142.471 Y125.199 E7.38495
G1 X141.775 Y125.753 E7.46901
G1 X140.859 Y126.401 E7.57505
G1 X140.119 Y126.865 E7.65759
G1 X139.138 Y127.407 E7.7635
G1 X138.334 Y127.793 E7.84778
G1 X137.297 Y128.221 E7.95379
G1 X136.25 Y128.57 E8.05809
G1 X134.621 Y128.988 E8.21701
G1 X133.535 Y129.187 E8.32135
G1 X132.421 Y129.311 E8.42727
G1 X131.543 Y129.359 E8.51037
G1 X130.423 Y129.358 E8.61621
G1 X129.32 Y129.279 E8.72071
G1 X127.655 Y129.042 E8.87964
G1 X126.582 Y128.812 E8.98334
G1 X125.504 Y128.501 E9.08937
G1 X124.666 Y128.207 E9.17329
G1 X123.631 Y127.777 E9.2792
G1 X122.833 Y127.392 E9.36293
G1 X121.852 Y126.848 E9.46893
G1 X121.497 Y126.625 E9.50855
G1 X121.014 Y126.928 E9.56243
G1 X120.235 Y127.357 E9.64647
G1 X119.224 Y127.842 E9.75244
G1 X118.206 Y128.246 E9.85594
G1 X116.603 Y128.756 E10.0149
G1 X115.835 Y128.959 E10.08997
G1 X115.302 Y129.052 E10.1411
G1 X113.637 Y129.284 E10.29996
G1 X112.543 Y129.359 E10.40359
G1 X111.423 Y129.358 E10.50943
G1 X110.32 Y129.279 E10.61393
G1 X108.655 Y129.042 E10.77286
G1 X107.582 Y128.812 E10.87656
G1 X106.504 Y128.501 E10.98259
G1 X105.666 Y128.207 E11.06651
G1 X104.631 Y127.777 E11.17242
G1 X103.833 Y127.392 E11.25615
G1 X102.852 Y126.848 E11.36215
G1 X102.11 Y126.381 E11.44501
G1 X101.195 Y125.731 E11.55107
G1 X100.498 Y125.174 E11.63538
G1 X99.664 Y124.426 E11.74125
G1 X99.047 Y123.807 E11.82384
G1 X98.3 Y122.97 E11.92986
G1 X97.745 Y122.273 E12.01406
G1 X97.098 Y121.358 E12.11996
G1 X96.635 Y120.619 E12.20237
G1 X96.093 Y119.638 E12.30828
G1 X95.707 Y118.834 E12.39256
G1 X95.279 Y117.797 E12.49858
G1 X94.93 Y116.75 E12.60287
G1 X94.512 Y115.121 E12.7618
G1 X94.313 Y114.035 E12.86613
G1 X94.189 Y112.921 E12.97206
G1 X94.141 Y112.043 E13.05515
G1 X94.142 Y110.923 E13.16099
G1 X94.221 Y109.82 E13.26549
G1 X94.458 Y108.155 E13.42442
G1 X94.688 Y107.082 E13.52812
G1 X94.999 Y106.004 E13.63415
G1 X95.293 Y105.166 E13.71807
G1 X95.723 Y104.131 E13.82398
G1 X96.108 Y103.333 E13.90771
G1 X96.652 Y102.352 E14.01372
G1 X97.118 Y101.612 E14.09636
G1 X97.767 Y100.698 E14.20229
G1 X98.325 Y99.999 E14.28681
G1 X99.073 Y99.165 E14.39268
G0 F4320 X99.334 Y99.399
G1 F1800 X99.925 Y98.809 E14.4716
G1 X100.762 Y98.062 E14.57761
G1 X101.427 Y97.533 E14.65791
G1 X102.343 Y96.885 E14.76394
G1 X103.05 Y96.441 E14.84284
G1 X104.031 Y95.899 E14.94875
G1 X104.799 Y95.53 E15.02927
G1 X105.836 Y95.102 E15.13528
G1 X106.837 Y94.769 E15.23498
G1 X108.466 Y94.351 E15.3939
G1 X109.504 Y94.161 E15.49362
G1 X110.618 Y94.037 E15.59955
G1 X111.457 Y93.991 E15.67895
G1 X112.577 Y93.992 E15.78479
G1 X113.63 Y94.067 E15.88455
G1 X115.295 Y94.304 E16.04348
G1 X116.321 Y94.524 E16.14264
G1 X117.399 Y94.835 E16.24867
G1 X118.2 Y95.116 E16.32888
G1 X119.235 Y95.546 E16.4348
G1 X119.997 Y95.914 E16.51476
G1 X120.978 Y96.458 E16.62077
G1 X121.504 Y96.788 E16.67945
G1 X122.172 Y96.369 E16.75396
G1 X122.916 Y95.958 E16.83429
G1 X123.927 Y95.473 E16.94025
G1 X124.901 Y95.087 E17.03926
G1 X126.504 Y94.577 E17.19822
G1 X127.254 Y94.38 E17.2715
G1 X127.747 Y94.295 E17.31878
G1 X129.412 Y94.063 E17.47764
G1 X130.457 Y93.991 E17.57663
G1 X131.577 Y93.992 E17.68247
G1 X132.63 Y94.067 E17.78223
G1 X134.295 Y94.304 E17.94116
G1 X135.321 Y94.524 E18.04032
G1 X136.399 Y94.835 E18.14634
G1 X137.2 Y95.116 E18.22656
G1 X138.235 Y95.546 E18.33247
G1 X138.997 Y95.914 E18.41244
G1 X139.978 Y96.458 E18.51845
G1 X140.686 Y96.903 E18.59747
G1 X141.6 Y97.552 E18.7034
G1 X142.267 Y98.086 E18.78415
G1 X143.101 Y98.834 E18.89001
G1 X143.691 Y99.425 E18.96893
G1 X144.438 Y100.262 E19.07495
G1 X144.967 Y100.927 E19.15525
G1 X145.615 Y101.843 E19.26128
G1 X146.059 Y102.55 E19.34017
G1 X146.601 Y103.531 E19.44609
G1 X146.969 Y104.297 E19.52639
G1 X147.397 Y105.333 E19.63232
G1 X147.731 Y106.336 E19.73222
G1 X148.149 Y107.965 E19.89115
G1 X148.339 Y109.003 E19.99087
G1 X148.463 Y110.117 E20.09679
G1 X148.509 Y110.956 E20.1762
G1 X148.508 Y112.077 E20.28213
G1 X148.433 Y113.13 E20.38189
G1 X148.196 Y114.795 E20.54082
G1 X147.976 Y115.821 E20.63998
G1 X147.665 Y116.899 E20.74601
G1 X147.384 Y117.7 E20.82622
G1 X146.954 Y118.735 E20.93214
G1 X146.586 Y119.497 E21.0121
G1 X146.042 Y120.478 E21.11811
G1 X145.597 Y121.186 E21.19713
G1 X144.948 Y122.1 E21.30307
G1 X144.414 Y122.767 E21.38381
G1 X143.666 Y123.601 E21.48968
G1 X143.075 Y124.191 E21.56859
G1 X142.238 Y124.938 E21.67461
G1 X141.573 Y125.467 E21.75491
G1 X140.657 Y126.115 E21.86094
G1 X139.95 Y126.559 E21.93984
G1 X138.969 Y127.101 E22.04575
G1 X138.201 Y127.47 E22.12627
G1 X137.164 Y127.898 E22.23228
G1 X136.163 Y128.231 E22.33197
G1 X134.534 Y128.649 E22.4909
G1 X133.496 Y128.839 E22.59062
G1 X132.382 Y128.963 E22.69655
G1 X131.543 Y129.009 E22.77595
G1 X130.423 Y129.008 E22.88179
G1 X129.37 Y128.933 E22.98155
G1 X127.705 Y128.696 E23.14048
G1 X126.679 Y128.476 E23.23964
G1 X125.601 Y128.165 E23.34567
G1 X124.8 Y127.884 E23.42588
G1 X123.765 Y127.454 E23.5318
G1 X123.003 Y127.086 E23.61176
G1 X122.022 Y126.542 E23.71777
G1 X121.497 Y126.212 E23.77637
G1 X120.828 Y126.631 E23.85096
G1 X120.084 Y127.042 E23.93128
G1 X119.073 Y127.527 E24.03725
G1 X118.099 Y127.913 E24.13626
G1 X116.496 Y128.423 E24.29522
G1 X115.746 Y128.62 E24.3685
G1 X115.253 Y128.705 E24.41578
G1 X113.588 Y128.937 E24.57464
G1 X112.543 Y129.009 E24.67363
G1 X111.423 Y129.008 E24.77947
G1 X110.37 Y128.933 E24.87923
G1 X108.705 Y128.696 E25.03816
G1 X107.679 Y128.476 E25.13732
G1 X106.601 Y128.165 E25.24334
G1 X105.8 Y127.884 E25.32356
G1 X104.765 Y127.454 E25.42947
G1 X104.003 Y127.086 E25.50944
G1 X103.022 Y126.542 E25.61544
G1 X102.313 Y126.096 E25.6946
G1 X101.398 Y125.446 E25.80066
G1 X100.732 Y124.913 E25.88127
G1 X99.898 Y124.165 E25.98714
G1 X99.308 Y123.574 E26.06606
G1 X98.561 Y122.737 E26.17207
G1 X98.031 Y122.071 E26.25251
G1 X97.384 Y121.156 E26.35841
G1 X96.941 Y120.45 E26.43717
G1 X96.399 Y119.469 E26.54308
G1 X96.03 Y118.701 E26.6236
G1 X95.602 Y117.664 E26.72962
G1 X95.269 Y116.663 E26.82931
G1 X94.851 Y115.034 E26.98824
G1 X94.661 Y113.996 E27.08796
G1 X94.537 Y112.882 E27.19388
G1 X94.491 Y112.043 E27.27328
G1 X94.492 Y110.923 E27.37912
G1 X94.567 Y109.87 E27.47888
G1 X94.804 Y108.205 E27.63781
G1 X95.024 Y107.179 E27.73697
G1 X95.335 Y106.101 E27.843
G1 X95.616 Y105.3 E27.92322
G1 X96.046 Y104.265 E28.02913
G1 X96.414 Y103.503 E28.1091
G1 X96.958 Y102.522 E28.2151
G1 X97.403 Y101.814 E28.29412
G1 X98.052 Y100.9 E28.40006
G1 X98.586 Y100.233 E28.4808
G1 X99.334 Y99.399 E28.58667
G0 F4320 X99.595 Y99.632
G1 F1800 X100.158 Y99.07 E28.66184
G1 X100.995 Y98.323 E28.76786
G1 X101.629 Y97.819 E28.8444
G1 X102.545 Y97.171 E28.95043
G1 X103.219 Y96.748 E29.02563
G1 X104.2 Y96.206 E29.13154
G1 X104.933 Y95.854 E29.20838
G1 X105.97 Y95.426 E29.3144
G1 X106.924 Y95.108 E29.40943
G1 X108.553 Y94.69 E29.56835
G1 X109.542 Y94.509 E29.66337
G1 X110.656 Y94.385 E29.76929
G1 X111.456 Y94.341 E29.845
G1 X112.576 Y94.342 E29.95084
G1 X113.581 Y94.414 E30.04606
G1 X115.246 Y94.651 E30.20499
G1 X116.224 Y94.86 E30.2995
G1 X117.302 Y95.171 E30.40552
G1 X118.066 Y95.439 E30.48203
G1 X119.101 Y95.869 E30.58795
G1 X119.828 Y96.22 E30.66423
G1 X120.809 Y96.764 E30.77024
G1 X121.483 Y97.189 E30.84554
G1 X121.502 Y97.202 E30.84771
G1 X122.358 Y96.665 E30.9432
G1 X123.068 Y96.274 E31.0198
G1 X124.079 Y95.789 E31.12577
G1 X125.007 Y95.421 E31.22011
G1 X126.61 Y94.911 E31.37907
G1 X127.343 Y94.719 E31.45068
G1 X127.795 Y94.642 E31.49401
G1 X129.46 Y94.41 E31.65287
G1 X130.456 Y94.341 E31.74722
G1 X131.576 Y94.342 E31.85306
G1 X132.581 Y94.414 E31.94827
G1 X134.246 Y94.651 E32.1072
G1 X135.224 Y94.86 E32.20171
G1 X136.302 Y95.171 E32.30773
G1 X137.066 Y95.439 E32.38424
G1 X138.101 Y95.869 E32.49016
G1 X138.828 Y96.22 E32.56645
G1 X139.809 Y96.764 E32.67245
G1 X140.483 Y97.189 E32.74775
G1 X141.397 Y97.838 E32.85368
G1 X142.034 Y98.347 E32.93074
G1 X142.868 Y99.095 E33.0366
G1 X143.43 Y99.658 E33.11178
G1 X144.177 Y100.495 E33.21779
G1 X144.681 Y101.129 E33.29433
G1 X145.329 Y102.045 E33.40036
G1 X145.752 Y102.719 E33.47556
G1 X146.294 Y103.7 E33.58147
G1 X146.645 Y104.43 E33.65802
G1 X147.073 Y105.466 E33.76395
G1 X147.392 Y106.423 E33.85928
G1 X147.81 Y108.052 E34.0182
G1 X147.991 Y109.041 E34.11322
G1 X148.115 Y110.155 E34.21914
G1 X148.159 Y110.955 E34.29485
G1 X148.158 Y112.076 E34.40079
G1 X148.086 Y113.081 E34.496
G1 X147.849 Y114.746 E34.65493
G1 X147.64 Y115.724 E34.74944
G1 X147.329 Y116.802 E34.85547
G1 X147.061 Y117.566 E34.93198
G1 X146.631 Y118.601 E35.03789
G1 X146.28 Y119.328 E35.11418
G1 X145.736 Y120.309 E35.22018
G1 X145.311 Y120.983 E35.29548
G1 X144.662 Y121.897 E35.40141
G1 X144.153 Y122.534 E35.47847
G1 X143.405 Y123.368 E35.58434
G1 X142.842 Y123.93 E35.65951
G1 X142.005 Y124.677 E35.76553
G1 X141.371 Y125.181 E35.84206
G1 X140.455 Y125.829 E35.9481
G1 X139.781 Y126.252 E36.02329
G1 X138.8 Y126.794 E36.12921
G1 X138.067 Y127.146 E36.20605
G1 X137.03 Y127.574 E36.31206
G1 X136.076 Y127.892 E36.40709
G1 X134.447 Y128.31 E36.56602
G1 X133.458 Y128.491 E36.66103
G1 X132.344 Y128.615 E36.76696
G1 X131.544 Y128.659 E36.84267
G1 X130.424 Y128.658 E36.94851
G1 X129.419 Y128.586 E37.04373
G1 X127.754 Y128.349 E37.20265
G1 X126.776 Y128.14 E37.29716
G1 X125.698 Y127.829 E37.40319
G1 X124.934 Y127.561 E37.4797
G1 X123.899 Y127.131 E37.58561
G1 X123.172 Y126.78 E37.6619
G1 X122.191 Y126.236 E37.76791
G1 X121.516 Y125.81 E37.84333
G1 X121.499 Y125.798 E37.8453
G1 X120.642 Y126.335 E37.94087
G1 X119.932 Y126.726 E38.01747
G1 X118.921 Y127.211 E38.12343
G1 X117.993 Y127.579 E38.21777
G1 X116.39 Y128.089 E38.37674
G1 X115.657 Y128.281 E38.44834
G1 X115.205 Y128.358 E38.49167
G1 X113.54 Y128.59 E38.65054
G1 X112.544 Y128.659 E38.74488
G1 X111.424 Y128.658 E38.85072
G1 X110.419 Y128.586 E38.94594
G1 X108.754 Y128.349 E39.10487
G1 X107.776 Y128.14 E39.19938
G1 X106.698 Y127.829 E39.3054
G1 X105.934 Y127.561 E39.38191
G1 X104.899 Y127.131 E39.48783
G1 X104.172 Y126.78 E39.56412
G1 X103.191 Y126.236 E39.67012
G1 X102.516 Y125.81 E39.74555
G1 X101.601 Y125.16 E39.85161
G1 X100.965 Y124.652 E39.92853
G1 X100.131 Y123.904 E40.0344
G1 X99.569 Y123.341 E40.10958
G1 X98.822 Y122.504 E40.21559
G1 X98.317 Y121.868 E40.29234
G1 X97.67 Y120.953 E40.39824
G1 X97.248 Y120.281 E40.47322
G1 X96.706 Y119.3 E40.57914
G1 X96.354 Y118.567 E40.65598
G1 X95.926 Y117.53 E40.76199
G1 X95.608 Y116.576 E40.85702
G1 X95.19 Y114.947 E41.01595
G1 X95.009 Y113.958 E41.11096
G1 X94.885 Y112.844 E41.21689
G1 X94.841 Y112.044 E41.2926
G1 X94.842 Y110.924 E41.39844
G1 X94.914 Y109.919 E41.49366
G1 X95.151 Y108.254 E41.65259
G1 X95.36 Y107.276 E41.74709
G1 X95.671 Y106.198 E41.85312
G1 X95.939 Y105.434 E41.92963
G1 X96.369 Y104.399 E42.03554
G1 X96.72 Y103.672 E42.11183
G1 X97.264 Y102.691 E42.21784
G1 X97.689 Y102.017 E42.29313
G1 X98.338 Y101.103 E42.39907
G1 X98.847 Y100.466 E42.47612
G1 X99.595 Y99.632 E42.58199
G0 F4320 X99.855 Y99.866
G1 F1800 X100.392 Y99.331 E42.65362
G1 X101.229 Y98.584 E42.75964
G1 X101.831 Y98.104 E42.8324
G1 X102.747 Y97.456 E42.93843
G1 X103.388 Y97.054 E43.00993
G1 X104.369 Y96.512 E43.11584
G1 X105.066 Y96.177 E43.18892
G1 X106.103 Y95.749 E43.29494
G1 X107.011 Y95.447 E43.38537
G1 X108.64 Y95.029 E43.54429
G1 X109.581 Y94.857 E43.63469
G1 X110.695 Y94.733 E43.74061
G1 X111.456 Y94.691 E43.81264
G1 X112.576 Y94.692 E43.91848
G1 X113.532 Y94.76 E44.00905
G1 X115.197 Y94.997 E44.16798
G1 X116.127 Y95.196 E44.25785
G1 X117.205 Y95.507 E44.36388
G1 X117.932 Y95.762 E44.43668
G1 X118.967 Y96.192 E44.54259
G1 X119.658 Y96.526 E44.61512
G1 X120.639 Y97.07 E44.72113
G1 X121.28 Y97.474 E44.79273
G1 X121.496 Y97.627 E44.81774
G1 X121.594 Y97.558 E44.82907
G1 X122.544 Y96.962 E44.93505
G1 X123.219 Y96.589 E45.00793
G1 X124.23 Y96.104 E45.11389
G1 X125.113 Y95.754 E45.20365
G1 X126.716 Y95.244 E45.36262
G1 X127.431 Y95.059 E45.43241
G1 X127.843 Y94.988 E45.47192
G1 X129.508 Y94.756 E45.63078
G1 X130.456 Y94.691 E45.72058
G1 X131.576 Y94.692 E45.82642
G1 X132.532 Y94.76 E45.91699
G1 X134.197 Y94.997 E46.07591
G1 X135.127 Y95.196 E46.16579
G1 X136.205 Y95.507 E46.27181
G1 X136.932 Y95.762 E46.34462
G1 X137.967 Y96.192 E46.45053
G1 X138.658 Y96.526 E46.52306
G1 X139.639 Y97.07 E46.62906
G1 X140.28 Y97.474 E46.70067
G1 X141.194 Y98.123 E46.8066
G1 X141.8 Y98.607 E46.87989
G1 X142.634 Y99.355 E46.98576
G1 X143.169 Y99.892 E47.05739
G1 X143.916 Y100.729 E47.16341
G1 X144.396 Y101.331 E47.23616
G1 X145.044 Y102.247 E47.3422
G1 X145.446 Y102.888 E47.4137
G1 X145.988 Y103.869 E47.51961
G1 X146.322 Y104.564 E47.59248
G1 X146.75 Y105.6 E47.69841
G1 X147.053 Y106.51 E47.78904
G1 X147.471 Y108.139 E47.94797
G1 X147.643 Y109.08 E48.03837
G1 X147.767 Y110.194 E48.14429
G1 X147.809 Y110.955 E48.21632
G1 X147.808 Y112.076 E48.32225
G1 X147.74 Y113.032 E48.41282
G1 X147.503 Y114.697 E48.57175
G1 X147.304 Y115.627 E48.66162
G1 X146.993 Y116.705 E48.76765
G1 X146.738 Y117.432 E48.84045
G1 X146.308 Y118.467 E48.94637
G1 X145.974 Y119.158 E49.0189
G1 X145.43 Y120.139 E49.1249
G1 X145.026 Y120.78 E49.1965
G1 X144.377 Y121.694 E49.30243
G1 X143.893 Y122.3 E49.37572
G1 X143.145 Y123.134 E49.48159
G1 X142.608 Y123.669 E49.55323
G1 X141.771 Y124.416 E49.65924
G1 X141.169 Y124.896 E49.732
G1 X140.253 Y125.544 E49.83803
G1 X139.612 Y125.946 E49.90953
G1 X138.631 Y126.488 E50.01545
G1 X137.934 Y126.823 E50.08853
G1 X136.897 Y127.251 E50.19454
G1 X135.989 Y127.553 E50.28497
G1 X134.36 Y127.971 E50.4439
G1 X133.419 Y128.143 E50.53429
G1 X132.305 Y128.267 E50.64022
G1 X131.544 Y128.309 E50.71224
G1 X130.424 Y128.308 E50.81808
G1 X129.468 Y128.24 E50.90865
G1 X127.803 Y128.003 E51.06758
G1 X126.873 Y127.804 E51.15745
G1 X125.795 Y127.493 E51.26348
G1 X125.068 Y127.238 E51.33629
G1 X124.033 Y126.808 E51.4422
G1 X123.342 Y126.474 E51.51473
