;FLAVOR:UltiGCode
;TIME:18965
;MATERIAL:52936
;MATERIAL2:0
;NOZZLE_DIAMETER:0.4
;Generated with Cura_SteamEngine 3.3.1
M82 ;absolute extrusion mode

G92 E0
G10
;LAYER_COUNT:230
;LAYER:0
M107
G0 F4500 X10.225 Y63.816 Z0.27
;TYPE:SKIRT
G11
G1 F3600 X11.008 Y63.69 E0.07495
G1 X11.872 Y63.642 E0.15672
G1 X211.005 Y63.626 E18.97479
G1 X211.798 Y63.666 E19.04982
G1 X212.582 Y63.785 E19.12476
G1 X213.157 Y63.926 E19.18071
G1 X213.407 Y63.997 E19.20526
G1 X214.159 Y64.252 E19.2803
G1 X214.881 Y64.581 E19.35528
G1 X215.566 Y64.981 E19.43024
G1 X216.207 Y65.448 E19.50519
G1 X216.901 Y66.081 E19.59395
G1 X217.08 Y66.265 E19.61821
G1 X217.604 Y66.861 E19.69321
G1 X218.065 Y67.506 E19.76813
G1 X218.459 Y68.195 E19.84313
G1 X218.782 Y68.92 E19.91814
G1 X219.043 Y69.721 E19.99775
G1 X219.108 Y69.964 E20.02152
G1 X219.274 Y70.74 E20.09651
G1 X219.361 Y71.529 E20.17152
G1 X219.375 Y72.001 E20.21615
G1 X219.354 Y151.141 E27.69488
G1 X219.314 Y151.934 E27.76991
G1 X219.194 Y152.718 E27.84486
G1 X218.996 Y153.486 E27.91981
G1 X218.722 Y154.231 E27.99482
G1 X218.232 Y155.191 E28.09668
G1 X218.1 Y155.411 E28.12092
G1 X217.658 Y156.07 E28.19591
G1 X217.152 Y156.681 E28.27088
G1 X216.587 Y157.238 E28.34585
G1 X215.969 Y157.735 E28.4208
G1 X215.214 Y158.219 E28.50555
G1 X214.994 Y158.343 E28.52941
G1 X214.284 Y158.698 E28.60443
G1 X213.542 Y158.979 E28.6794
G1 X212.775 Y159.184 E28.75443
G1 X211.992 Y159.31 E28.82938
G1 X211.128 Y159.358 E28.91115
G1 X12.001 Y159.375 E47.72865
G1 X11.208 Y159.335 E47.80368
G1 X10.424 Y159.216 E47.87862
G1 X9.868 Y159.081 E47.93269
G1 X9.612 Y159.009 E47.95782
G1 X8.86 Y158.756 E48.0328
G1 X8.137 Y158.428 E48.10782
G1 X7.451 Y158.03 E48.18277
G1 X6.808 Y157.564 E48.25781
G1 X6.099 Y156.919 E48.34839
G1 X5.92 Y156.735 E48.37265
G1 X5.396 Y156.139 E48.44765
G1 X4.935 Y155.494 E48.52257
G1 X4.541 Y154.805 E48.59757
G1 X4.218 Y154.08 E48.67257
G1 X3.957 Y153.279 E48.75219
G1 X3.892 Y153.036 E48.77596
G1 X3.726 Y152.26 E48.85095
G1 X3.639 Y151.471 E48.92596
G1 X3.625 Y150.999 E48.97058
G1 X3.646 Y71.858 E56.44941
G1 X3.686 Y71.065 E56.52444
G1 X3.806 Y70.281 E56.59939
G1 X4.004 Y69.513 E56.67434
G1 X4.278 Y68.768 E56.74936
G1 X4.776 Y67.795 E56.85265
G1 X4.908 Y67.576 E56.87681
G1 X5.352 Y66.918 E56.95183
G1 X5.859 Y66.308 E57.02678
G1 X6.425 Y65.752 E57.10176
G1 X7.044 Y65.255 E57.17678
G1 X7.786 Y64.781 E57.25998
G1 X8.006 Y64.657 E57.28385
G1 X8.716 Y64.302 E57.35886
G1 X9.458 Y64.021 E57.43384
G1 X10.225 Y63.816 E57.50886
G0 F4500 X10.349 Y64.148
G1 F3600 X11.116 Y64.03 E57.5822
G1 X11.872 Y63.992 E57.65373
G1 X211.005 Y63.976 E76.4718
G1 X211.78 Y64.016 E76.54513
G1 X212.546 Y64.135 E76.61839
G1 X213.062 Y64.262 E76.66861
G1 X213.312 Y64.333 E76.69317
G1 X214.046 Y64.583 E76.76644
G1 X214.751 Y64.908 E76.8398
G1 X215.418 Y65.303 E76.91306
G1 X216.041 Y65.765 E76.98635
G1 X216.65 Y66.325 E77.06454
G1 X216.829 Y66.509 E77.08879
G1 X217.34 Y67.092 E77.16206
G1 X217.789 Y67.725 E77.23539
G1 X218.17 Y68.4 E77.30864
G1 X218.48 Y69.111 E77.38194
G1 X218.704 Y69.812 E77.45148
G1 X218.769 Y70.055 E77.47526
G1 X218.931 Y70.813 E77.5485
G1 X219.014 Y71.584 E77.62178
G1 X219.025 Y72.001 E77.6612
G1 X219.004 Y151.141 E85.13994
G1 X218.964 Y151.916 E85.21327
G1 X218.844 Y152.682 E85.28654
G1 X218.646 Y153.432 E85.35984
G1 X218.372 Y154.157 E85.43309
G1 X217.932 Y155.011 E85.52387
G1 X217.8 Y155.231 E85.54812
G1 X217.367 Y155.874 E85.62137
G1 X216.87 Y156.47 E85.69471
G1 X216.315 Y157.011 E85.76795
G1 X215.706 Y157.493 E85.84134
G1 X215.042 Y157.914 E85.91564
G1 X214.822 Y158.038 E85.93951
G1 X214.127 Y158.384 E86.01287
G1 X213.401 Y158.656 E86.08614
G1 X212.651 Y158.852 E86.15939
G1 X211.884 Y158.97 E86.23273
G1 X211.128 Y159.008 E86.30426
G1 X12.001 Y159.025 E105.12176
G1 X11.226 Y158.985 E105.19509
G1 X10.46 Y158.866 E105.26835
G1 X9.963 Y158.744 E105.31671
G1 X9.707 Y158.672 E105.34184
G1 X8.972 Y158.424 E105.41515
G1 X8.266 Y158.101 E105.48851
G1 X7.598 Y157.708 E105.56175
G1 X6.974 Y157.248 E105.63501
G1 X6.35 Y156.675 E105.71507
G1 X6.171 Y156.491 E105.73933
G1 X5.66 Y155.908 E105.81259
G1 X5.211 Y155.275 E105.88593
G1 X4.83 Y154.6 E105.95918
G1 X4.52 Y153.889 E106.03248
G1 X4.296 Y153.188 E106.10202
G1 X4.231 Y152.945 E106.12579
G1 X4.069 Y152.187 E106.19904
G1 X3.986 Y151.416 E106.27232
G1 X3.975 Y150.999 E106.31174
G1 X3.996 Y71.858 E113.79056
G1 X4.036 Y71.083 E113.8639
G1 X4.156 Y70.317 E113.93717
G1 X4.354 Y69.567 E114.01047
G1 X4.628 Y68.842 E114.08372
G1 X5.076 Y67.975 E114.17594
G1 X5.208 Y67.756 E114.2001
G1 X5.642 Y67.114 E114.27333
G1 X6.14 Y66.519 E114.34666
G1 X6.697 Y65.979 E114.41997
G1 X7.306 Y65.499 E114.49325
G1 X7.958 Y65.086 E114.56618
G1 X8.178 Y64.962 E114.59005
G1 X8.873 Y64.616 E114.66341
G1 X9.599 Y64.344 E114.73668
G1 X10.349 Y64.148 E114.80993
G0 F4500 X10.473 Y64.48
G1 F3600 X11.222 Y64.372 E114.88144
G1 X11.872 Y64.342 E114.94293
G1 X211.005 Y64.326 E133.761
G1 X211.762 Y64.366 E133.83264
G1 X212.51 Y64.485 E133.90421
G1 X212.966 Y64.599 E133.94863
G1 X213.216 Y64.67 E133.97319
G1 X213.933 Y64.915 E134.04479
G1 X214.62 Y65.234 E134.11637
G1 X215.269 Y65.624 E134.18793
G1 X215.874 Y66.08 E134.25952
G1 X216.399 Y66.569 E134.32732
G1 X216.578 Y66.753 E134.35158
G1 X217.077 Y67.323 E134.42317
G1 X217.512 Y67.942 E134.49466
G1 X217.881 Y68.604 E134.56628
G1 X218.177 Y69.301 E134.63784
G1 X218.366 Y69.902 E134.69738
G1 X218.431 Y70.145 E134.72115
G1 X218.588 Y70.886 E134.79273
G1 X218.675 Y72.001 E134.89842
G1 X218.654 Y151.141 E142.37715
G1 X218.614 Y151.897 E142.44869
G1 X218.494 Y152.645 E142.52028
G1 X218.296 Y153.376 E142.59185
G1 X218.023 Y154.082 E142.66338
G1 X217.632 Y154.831 E142.74322
G1 X217.5 Y155.051 E142.76747
G1 X217.076 Y155.678 E142.839
G1 X216.589 Y156.258 E142.91057
G1 X216.043 Y156.784 E142.98221
G1 X215.445 Y157.248 E143.05374
G1 X214.87 Y157.61 E143.11795
G1 X214.65 Y157.734 E143.14181
G1 X213.972 Y158.07 E143.21332
G1 X213.261 Y158.333 E143.28496
G1 X212.527 Y158.52 E143.35654
G1 X211.778 Y158.628 E143.42805
G1 X211.128 Y158.658 E143.48954
G1 X12.001 Y158.675 E162.30704
G1 X11.244 Y158.635 E162.37868
G1 X10.496 Y158.516 E162.45025
G1 X10.057 Y158.407 E162.493
G1 X9.801 Y158.335 E162.51813
G1 X9.084 Y158.092 E162.58967
G1 X8.397 Y157.774 E162.66121
G1 X7.746 Y157.386 E162.73283
G1 X7.14 Y156.931 E162.80444
G1 X6.601 Y156.431 E162.87392
G1 X6.422 Y156.247 E162.89817
G1 X5.923 Y155.677 E162.96976
G1 X5.488 Y155.058 E163.04126
G1 X5.119 Y154.396 E163.11288
G1 X4.823 Y153.699 E163.18444
G1 X4.634 Y153.098 E163.24398
G1 X4.569 Y152.855 E163.26775
G1 X4.412 Y152.114 E163.33933
G1 X4.325 Y150.999 E163.44501
G1 X4.346 Y71.858 E170.92384
G1 X4.386 Y71.102 E170.99538
G1 X4.506 Y70.354 E171.06697
G1 X4.704 Y69.623 E171.13854
G1 X4.977 Y68.917 E171.21007
G1 X5.376 Y68.156 E171.29127
G1 X5.508 Y67.937 E171.31543
G1 X5.933 Y67.31 E171.38702
G1 X6.421 Y66.731 E171.45857
G1 X6.968 Y66.207 E171.53016
G1 X7.567 Y65.743 E171.60176
G1 X8.13 Y65.39 E171.66455
G1 X8.35 Y65.266 E171.68842
G1 X9.028 Y64.93 E171.75993
G1 X9.739 Y64.667 E171.83156
G1 X10.473 Y64.48 E171.90314
G0 F4500 X10.595 Y64.813
G1 F3600 X11.327 Y64.714 E171.97295
G1 X11.872 Y64.692 E172.02449
G1 X211.005 Y64.676 E190.84256
G1 X211.743 Y64.716 E190.9124
G1 X212.472 Y64.835 E190.98221
G1 X212.871 Y64.936 E191.0211
G1 X213.121 Y65.007 E191.04566
G1 X213.819 Y65.247 E191.11541
G1 X214.488 Y65.561 E191.18525
G1 X215.118 Y65.945 E191.25497
G1 X215.704 Y66.395 E191.32479
G1 X216.148 Y66.813 E191.38242
G1 X216.327 Y66.997 E191.40668
G1 X216.813 Y67.553 E191.47646
G1 X217.235 Y68.159 E191.54625
G1 X217.59 Y68.807 E191.61607
G1 X217.873 Y69.49 E191.68593
G1 X218.028 Y69.992 E191.73558
G1 X218.093 Y70.235 E191.75935
G1 X218.245 Y70.958 E191.82917
G1 X218.325 Y72.001 E191.92802
G1 X218.304 Y151.141 E199.40675
G1 X218.264 Y151.878 E199.4765
G1 X218.144 Y152.607 E199.54632
G1 X217.946 Y153.319 E199.61616
G1 X217.673 Y154.005 E199.68593
G1 X217.331 Y154.65 E199.75492
G1 X217.199 Y154.87 E199.77917
G1 X216.786 Y155.482 E199.84894
G1 X216.308 Y156.046 E199.9188
G1 X215.773 Y156.555 E199.98859
G1 X215.185 Y157.002 E200.05838
G1 X214.698 Y157.305 E200.11259
G1 X214.478 Y157.429 E200.13645
G1 X213.816 Y157.756 E200.20623
G1 X213.122 Y158.01 E200.27606
G1 X212.405 Y158.187 E200.34585
G1 X211.673 Y158.286 E200.41566
G1 X211.128 Y158.308 E200.4672
G1 X12.001 Y158.325 E219.2847
G1 X11.263 Y158.285 E219.35455
G1 X10.534 Y158.166 E219.42435
G1 X10.152 Y158.07 E219.46157
G1 X9.896 Y157.998 E219.4867
G1 X9.197 Y157.76 E219.55648
G1 X8.528 Y157.448 E219.62624
G1 X7.896 Y157.065 E219.69607
G1 X7.309 Y156.616 E219.76591
G1 X6.852 Y156.187 E219.82515
G1 X6.673 Y156.003 E219.8494
G1 X6.187 Y155.447 E219.91919
G1 X5.765 Y154.841 E219.98897
G1 X5.41 Y154.193 E220.0588
G1 X5.127 Y153.51 E220.12866
G1 X4.972 Y153.008 E220.17831
G1 X4.907 Y152.765 E220.20208
G1 X4.755 Y152.042 E220.2719
G1 X4.675 Y150.999 E220.37075
G1 X4.696 Y71.858 E227.84958
G1 X4.736 Y71.121 E227.91933
G1 X4.856 Y70.392 E227.98914
G1 X5.054 Y69.68 E228.05898
G1 X5.327 Y68.994 E228.12875
G1 X5.676 Y68.337 E228.19905
G1 X5.808 Y68.118 E228.22322
G1 X6.223 Y67.507 E228.29302
G1 X6.701 Y66.944 E228.36281
G1 X7.238 Y66.436 E228.43267
G1 X7.826 Y65.99 E228.50241
G1 X8.302 Y65.695 E228.55533
G1 X8.522 Y65.571 E228.57919
G1 X9.184 Y65.244 E228.64897
G1 X9.878 Y64.99 E228.71881
G1 X10.595 Y64.813 E228.7886
G0 F4500 X10.715 Y65.146
G1 F3600 X11.429 Y65.057 E228.85659
G1 X11.872 Y65.042 E228.89848
G1 X211.005 Y65.026 E247.71655
G1 X211.724 Y65.066 E247.7846
G1 X212.775 Y65.272 E247.88581
G1 X213.025 Y65.343 E247.91037
G1 X213.705 Y65.578 E247.97836
G1 X214.355 Y65.887 E248.04637
G1 X214.966 Y66.266 E248.11431
G1 X215.532 Y66.71 E248.18229
G1 X215.897 Y67.057 E248.22989
G1 X216.076 Y67.241 E248.25414
G1 X216.548 Y67.784 E248.32213
G1 X216.958 Y68.376 E248.39018
G1 X217.298 Y69.009 E248.45809
G1 X217.567 Y69.677 E248.52614
G1 X217.69 Y70.083 E248.56623
G1 X217.755 Y70.326 E248.59
G1 X217.902 Y71.03 E248.65796
G1 X217.975 Y72.001 E248.74998
G1 X217.954 Y151.141 E256.22871
G1 X217.914 Y151.859 E256.29667
G1 X217.794 Y152.568 E256.36462
G1 X217.597 Y153.26 E256.43261
G1 X217.324 Y153.926 E256.50063
G1 X217.031 Y154.47 E256.55902
G1 X216.899 Y154.69 E256.58327
G1 X216.495 Y155.286 E256.65131
G1 X216.028 Y155.833 E256.71928
G1 X215.503 Y156.324 E256.7872
G1 X214.926 Y156.755 E256.85526
G1 X214.526 Y157 E256.89959
G1 X214.306 Y157.124 E256.92346
G1 X213.661 Y157.442 E256.99141
G1 X212.984 Y157.686 E257.05942
G1 X212.285 Y157.854 E257.12736
G1 X211.571 Y157.943 E257.19535
G1 X211.128 Y157.958 E257.23724
G1 X12.001 Y157.975 E276.05474
G1 X11.282 Y157.935 E276.12279
G1 X10.247 Y157.733 E276.22244
G1 X9.991 Y157.661 E276.24757
G1 X9.31 Y157.428 E276.31559
G1 X8.66 Y157.121 E276.38352
G1 X8.047 Y156.744 E276.45153
G1 X7.48 Y156.301 E276.51953
G1 X7.103 Y155.943 E276.56866
G1 X6.924 Y155.759 E276.59291
G1 X6.452 Y155.216 E276.6609
G1 X6.042 Y154.624 E276.72895
G1 X5.702 Y153.991 E276.79686
G1 X5.433 Y153.323 E276.86491
G1 X5.31 Y152.917 E276.905
G1 X5.245 Y152.674 E276.92877
G1 X5.098 Y151.97 E276.99673
G1 X5.025 Y150.999 E277.08875
G1 X5.046 Y71.858 E284.56757
G1 X5.086 Y71.14 E284.63553
G1 X5.206 Y70.431 E284.70348
G1 X5.403 Y69.739 E284.77148
G1 X5.676 Y69.073 E284.8395
G1 X5.975 Y68.517 E284.89915
G1 X6.107 Y68.298 E284.92332
G1 X6.512 Y67.704 E284.99126
G1 X6.981 Y67.158 E285.05927
G1 X7.507 Y66.667 E285.12727
G1 X8.085 Y66.238 E285.19529
G1 X8.474 Y66 E285.23839
G1 X8.694 Y65.876 E285.26225
G1 X9.339 Y65.558 E285.33021
G1 X10.016 Y65.314 E285.39822
G1 X10.715 Y65.146 E285.46615
G0 F4500 X10.835 Y65.481
G1 F3600 X11.873 Y65.392 E285.5646
G1 X211.006 Y65.376 E304.38267
G1 X211.704 Y65.416 E304.44874
G1 X212.679 Y65.609 E304.54267
G1 X212.929 Y65.68 E304.56723
G1 X213.59 Y65.909 E304.63333
G1 X214.221 Y66.212 E304.69948
G1 X214.813 Y66.586 E304.76566
G1 X215.358 Y67.024 E304.83173
G1 X215.646 Y67.301 E304.86949
G1 X215.825 Y67.485 E304.89375
G1 X216.284 Y68.014 E304.95993
G1 X216.679 Y68.591 E305.02601
G1 X217.006 Y69.21 E305.09217
G1 X217.352 Y70.173 E305.18887
G1 X217.417 Y70.416 E305.21264
G1 X217.559 Y71.101 E305.27875
G1 X217.625 Y72.001 E305.36403
G1 X217.604 Y151.141 E312.84276
G1 X217.564 Y151.839 E312.90883
G1 X217.444 Y152.529 E312.97501
G1 X217.247 Y153.2 E313.0411
G1 X216.974 Y153.844 E313.1072
G1 X216.731 Y154.29 E313.15519
G1 X216.599 Y154.51 E313.17944
G1 X216.205 Y155.089 E313.24562
G1 X215.748 Y155.619 E313.31175
G1 X215.234 Y156.093 E313.37783
G1 X214.669 Y156.505 E313.44391
G1 X214.354 Y156.695 E313.47867
G1 X214.134 Y156.819 E313.50254
G1 X213.506 Y157.127 E313.56863
G1 X212.847 Y157.362 E313.63475
G1 X212.165 Y157.519 E313.70089
G1 X211.128 Y157.608 E313.79924
G1 X12.001 Y157.625 E332.61674
G1 X11.302 Y157.585 E332.68291
G1 X10.342 Y157.396 E332.77537
G1 X10.086 Y157.324 E332.8005
G1 X9.424 Y157.097 E332.86663
G1 X8.793 Y156.795 E332.93274
G1 X8.2 Y156.423 E332.99889
G1 X7.653 Y155.987 E333.065
G1 X7.354 Y155.699 E333.10423
G1 X7.175 Y155.515 E333.12849
G1 X6.716 Y154.986 E333.19467
G1 X6.321 Y154.409 E333.26075
G1 X5.994 Y153.79 E333.32691
G1 X5.648 Y152.827 E333.42361
G1 X5.583 Y152.584 E333.44738
G1 X5.441 Y151.899 E333.51349
G1 X5.375 Y150.999 E333.59876
G1 X5.396 Y71.858 E341.07759
G1 X5.436 Y71.16 E341.14366
G1 X5.556 Y70.47 E341.20984
G1 X5.753 Y69.799 E341.27593
G1 X6.026 Y69.155 E341.34203
G1 X6.275 Y68.698 E341.39121
G1 X6.407 Y68.479 E341.41537
G1 X6.802 Y67.901 E341.48153
G1 X7.26 Y67.373 E341.54758
G1 X7.776 Y66.899 E341.6138
G1 X8.342 Y66.488 E341.6799
G1 X8.646 Y66.305 E341.71343
G1 X8.866 Y66.181 E341.73729
G1 X9.494 Y65.873 E341.80339
G1 X10.153 Y65.638 E341.86951
G1 X10.835 Y65.481 E341.93564
G0 F4500 X10.952 Y65.816
G1 F3600 X11.873 Y65.742 E342.02296
G1 X211.006 Y65.726 E360.84103
G1 X211.684 Y65.766 E360.90521
G1 X212.584 Y65.946 E360.99194
G1 X212.834 Y66.017 E361.0165
G1 X213.475 Y66.24 E361.08064
G1 X214.086 Y66.538 E361.14488
G1 X214.658 Y66.905 E361.2091
G1 X215.395 Y67.545 E361.30134
G1 X215.574 Y67.729 E361.3256
G1 X216.019 Y68.243 E361.38985
G1 X216.4 Y68.806 E361.45409
G1 X216.712 Y69.409 E361.51825
G1 X217.014 Y70.264 E361.60394
G1 X217.079 Y70.507 E361.62771
G1 X217.216 Y71.172 E361.69187
G1 X217.275 Y72.001 E361.77041
G1 X217.254 Y151.141 E369.24914
G1 X217.214 Y151.819 E369.31333
G1 X217.094 Y152.488 E369.37755
G1 X216.897 Y153.138 E369.44174
G1 X216.625 Y153.76 E369.50589
G1 X216.431 Y154.11 E369.54371
G1 X216.299 Y154.33 E369.56795
G1 X215.916 Y154.891 E369.63214
G1 X215.469 Y155.403 E369.69637
G1 X214.966 Y155.86 E369.7606
G1 X214.183 Y156.39 E369.84995
G1 X213.963 Y156.514 E369.87381
G1 X213.352 Y156.812 E369.93805
G1 X212.711 Y157.037 E370.00225
G1 X212.048 Y157.184 E370.06643
G1 X211.127 Y157.258 E370.15374
G1 X12 Y157.275 E388.97124
G1 X11.322 Y157.235 E389.03542
G1 X10.436 Y157.059 E389.12079
G1 X10.18 Y156.987 E389.14592
G1 X9.538 Y156.765 E389.21011
G1 X8.927 Y156.469 E389.27427
G1 X8.354 Y156.103 E389.33852
G1 X7.605 Y155.455 E389.43212
G1 X7.426 Y155.271 E389.45637
G1 X6.981 Y154.757 E389.52062
G1 X6.6 Y154.194 E389.58486
G1 X6.288 Y153.591 E389.64902
G1 X5.986 Y152.736 E389.73471
G1 X5.921 Y152.493 E389.75848
G1 X5.784 Y151.828 E389.82264
G1 X5.725 Y150.999 E389.90118
G1 X5.746 Y71.858 E397.38001
G1 X5.786 Y71.18 E397.44419
G1 X5.906 Y70.511 E397.50842
G1 X6.103 Y69.861 E397.5726
G1 X6.375 Y69.239 E397.63676
G1 X6.575 Y68.879 E397.67567
G1 X6.707 Y68.66 E397.69984
G1 X7.091 Y68.1 E397.76401
G1 X7.539 Y67.588 E397.8283
G1 X8.043 Y67.133 E397.89246
G1 X8.817 Y66.61 E397.98074
G1 X9.037 Y66.486 E398.0046
G1 X9.648 Y66.188 E398.06884
G1 X10.289 Y65.963 E398.13304
G1 X10.952 Y65.816 E398.19722
G0 F4500 X10.424 Y66.289
G1 F3600 X11.068 Y66.152 E398.25944
G1 X11.873 Y66.092 E398.33572
G1 X211.006 Y66.076 E417.15379
G1 X211.663 Y66.116 E417.21599
G1 X212.488 Y66.282 E417.29551
G1 X212.738 Y66.353 E417.32007
G1 X213.359 Y66.571 E417.38227
G1 X213.95 Y66.863 E417.44456
G1 X214.5 Y67.224 E417.50673
G1 X215.145 Y67.789 E417.58777
G1 X215.324 Y67.973 E417.61202
G1 X215.753 Y68.472 E417.67421
G1 X216.119 Y69.019 E417.73641
